icon-themes/sifr_svg/cmd/lc_deleterows.svg

<svg viewBox="0 0 24 24" xmlns="http://www.w3.org/2000/svg"><g fill="#555753"><path d="m2 2v20h20v-20zm2 2h4v3h-4zm5 0h6v3h-6zm7 0h4v3h-4zm-12 4h16v8h-16zm5 3v2h6v-2zm-5 6h4v3h-4zm5 0h6v3h-6zm7 0h4v3h-4z"/><path d="m4 8v8h16v-8z" opacity=".35"/></g></svg>

<svg xmlns="http://www.w3.org/2000/svg" viewBox="0 0 24 24">
  <path
     style="fill:#555753"
     d="M 2 2 L 2 22 L 22 22 L 22 2 L 2 2 z M 4 4 L 8 4 L 8 7 L 4 7 L 4 4 z M 9 4 L 15 4 L 15 7 L 9 7 L 9 4 z M 16 4 L 20 4 L 20 7 L 16 7 L 16 4 z M 4 8 L 20 8 L 20 16 L 4 16 L 4 8 z M 9 11 L 9 13 L 15 13 L 15 11 L 9 11 z M 4 17 L 8 17 L 8 20 L 4 20 L 4 17 z M 9 17 L 15 17 L 15 20 L 9 20 L 9 17 z M 16 17 L 20 17 L 20 20 L 16 20 L 16 17 z "
     />
  <path
     style="opacity:0.35;fill:#555753"
     d="M 4 8 L 4 16 L 20 16 L 20 8 L 4 8 z "
     />
</svg>
